SVG_Azure_Grouped/Data/Azure Cosmos DB Cognitive Search.svg

<?xml version="1.0" encoding="UTF-8" standalone="no"?>
<!-- Generated by Microsoft Visio, SVG Export Azure Cosmos DB Cognitive Search.svg Page-1 -->

<svg
   xmlns:dc="http://purl.org/dc/elements/1.1/"
   xmlns:cc="http://creativecommons.org/ns#"
   xmlns:rdf="http://www.w3.org/1999/02/22-rdf-syntax-ns#"
   xmlns:svg="http://www.w3.org/2000/svg"
   xmlns="http://www.w3.org/2000/svg"
   xmlns:sodipodi="http://sodipodi.sourceforge.net/DTD/sodipodi-0.dtd"
   xmlns:inkscape="http://www.inkscape.org/namespaces/inkscape"
   width="0.78735858in"
   height="0.4723593in"
   viewBox="0 0 56.689623 34.01001"
   xml:space="preserve"
   class="st2"
   version="1.1"
   id="svg27"
   sodipodi:docname="Azure Cosmos DB Cognitive Search.svg"
   style="font-size:12px;overflow:visible;color-interpolation-filters:sRGB;fill:none;fill-rule:evenodd;stroke-linecap:square;stroke-miterlimit:3"
   inkscape:version="0.92.5 (2060ec1f9f, 2020-04-08)"><metadata
   id="metadata33"><rdf:RDF><cc:Work
       rdf:about=""><dc:format>image/svg+xml</dc:format><dc:type
         rdf:resource="http://purl.org/dc/dcmitype/StillImage" /></cc:Work></rdf:RDF></metadata><defs
   id="defs31" /><sodipodi:namedview
   pagecolor="#ffffff"
   bordercolor="#666666"
   borderopacity="1"
   objecttolerance="10"
   gridtolerance="10"
   guidetolerance="10"
   inkscape:pageopacity="0"
   inkscape:pageshadow="2"
   inkscape:window-width="640"
   inkscape:window-height="480"
   id="namedview29"
   showgrid="false"
   inkscape:zoom="2.2811136"
   inkscape:cx="37.795142"
   inkscape:cy="6.3697208"
   inkscape:window-x="0"
   inkscape:window-y="0"
   inkscape:window-maximized="0"
   inkscape:current-layer="svg27" />
	<style
   type="text/css"
   id="style2">
	<![CDATA[
		.st1 {fill:#59b4d9;stroke:none;stroke-linecap:butt;stroke-width:9.5625}
		.st2 {fill:none;fill-rule:evenodd;font-size:12px;overflow:visible;stroke-linecap:square;stroke-miterlimit:3}
	]]>
	</style>

	<g
   id="g25"
   transform="translate(-9.5627635,-9.5643)">
		<title
   id="title4">Page-1</title>
		<g
   id="group19783-1"
   transform="translate(9.56253,-34.0157)">
			<title
   id="title6">Azure Cosmos DB Cognitive Search.19783</title>
			<g
   id="group19784-2">
				<title
   id="title8">Sheet.19784</title>
				<g
   id="group19785-3">
					<title
   id="title10">Sheet.19785</title>
					<g
   id="shape19786-4"
   transform="translate(25.663,-9.2338)">
						<title
   id="title12">Sheet.19786</title>
						<path
   d="M 11.01,67.35 C 10.59,66.73 10.05,66.2 9.41,65.79 8.76,65.37 8.02,65.09 7.2,64.96 A 5.88472,5.72676 -180 0 0 4.79,65.05 C 4.01,65.24 3.3,65.57 2.66,66.02 a 6.37701,6.20583 -180 0 0 -1.62,1.72 c -0.45,0.69 -0.74,1.48 -0.89,2.35 -0.15,0.9 -0.14,1.77 0.03,2.6 0.17,0.83 0.48,1.58 0.92,2.23 a 6.0189,5.85733 -180 0 0 1.68,1.66 5.72598,5.57228 -180 0 0 2.32,0.88 c 0.83,0.13 1.63,0.09 2.39,-0.13 a 5.65039,5.49872 -180 0 0 2.04,-1.06 6.53575,6.36031 -180 0 0 1.53,-1.85 c 0.42,-0.73 0.7,-1.55 0.85,-2.46 a 7.07528,6.88535 -180 0 0 -0.03,-2.48 6.21543,6.04859 -180 0 0 -0.87,-2.13 z"
   class="st1"
   id="path14"
   inkscape:connector-curvature="0"
   style="fill:#59b4d9;stroke:none;stroke-width:9.5625;stroke-linecap:butt" />
					</g>
					<g
   id="shape19787-6">
						<title
   id="title17">Sheet.19787</title>
						<path
   d="m 55.18,64.35 a 9.77008,9.50782 -180 0 0 -3.8,-3.05 c 0.12,-0.38 0.24,-0.77 0.34,-1.17 0.11,-0.41 0.17,-0.86 0.17,-1.38 0,-1.31 -0.24,-2.55 -0.72,-3.72 a 10.6299,10.3446 -180 0 0 -1.95,-3.09 9.40913,9.15657 -180 0 0 -2.9,-2.15 7.8652,7.65407 -180 0 0 -3.51,-0.78 c -2.39,0 -4.19,0.68 -5.4,2.04 -0.61,-2.41 -1.74,-4.26 -3.38,-5.55 -1.64,-1.28 -3.53,-1.92 -5.67,-1.92 -1.36,0 -2.63,0.27 -3.8,0.82 a 9.5452,9.28898 -180 0 0 -3.07,2.29 c -0.88,0.99 -1.56,2.15 -2.06,3.49 -0.49,1.34 -0.74,2.78 -0.74,4.32 0,0.15 0.01,0.34 0.04,0.55 0.03,0.21 0.06,0.4 0.08,0.55 -0.38,-0.15 -0.84,-0.28 -1.4,-0.37 A 10.5222,10.2398 -180 0 0 15.69,55.1 c -0.61,0 -1.21,0.12 -1.81,0.35 a 6.90992,6.72444 -180 0 0 -1.66,0.94 10.7717,10.4825 -180 0 0 -1.44,1.33 C 10.34,58.21 9.97,58.28 9.67,59.2 H 7.86 A 6.2022,6.03572 -180 0 0 4.88,59.93 8.7137,8.4798 -180 0 0 2.39,61.89 10.062,9.79195 -180 0 0 0.65,64.72 9.27213,9.02324 -180 0 0 0,68.07 c 0,1.36 0.22,2.62 0.65,3.8 0.44,1.17 1.02,2.17 1.74,3.01 0.72,0.84 1.55,1.51 2.49,1.99 a 6.32126,6.15158 -180 0 0 2.98,0.72 h 42.19 c 0.79,0 1.57,-0.24 2.36,-0.71 0.78,-0.47 1.49,-1.08 2.13,-1.84 0.64,-0.76 1.16,-1.64 1.56,-2.62 a 8.3263,8.1028 -180 0 0 0.59,-2.98 c 0,-2.05 -0.5,-3.75 -1.51,-5.09 z M 40.3,63.16 a 9.86079,9.5961 0 0 1 -0.73,2.39 10.56,10.2765 0 0 1 -1.27,2.08 10.2047,9.9308 0 0 1 -1.69,1.68 c -0.63,0.49 -1.29,0.89 -1.98,1.2 -0.7,0.31 -1.41,0.52 -2.16,0.64 -0.74,0.11 -1.47,0.11 -2.2,0 -0.58,-0.09 -1.08,-0.2 -1.51,-0.33 A 6.79087,6.60858 0 0 1 27.62,70.36 5.53701,5.38838 0 0 1 26.73,69.8 8.65701,8.42463 0 0 1 25.99,69.13 l -7.76,5.98 c -0.43,0.27 -0.87,0.37 -1.32,0.3 a 1.88787,1.8372 0 0 1 -0.71,-0.27 2.42268,2.35765 0 0 1 -0.62,-0.59 2.11087,2.0542 0 0 1 -0.41,-0.87 2.74961,2.6758 0 0 1 0.3,-1.83 c 0.16,-0.28 0.36,-0.51 0.59,-0.69 l 7.48,-5.73 c -0.34,-0.86 -0.52,-1.71 -0.56,-2.53 -0.04,-0.83 0.01,-1.65 0.14,-2.47 0.14,-0.83 0.39,-1.61 0.75,-2.34 0.35,-0.73 0.79,-1.4 1.3,-2 a 9.29291,9.04346 0 0 1 1.72,-1.58 c 0.65,-0.46 1.32,-0.82 2.03,-1.11 0.71,-0.28 1.44,-0.47 2.19,-0.57 0.75,-0.09 1.5,-0.08 2.23,0.04 a 7.2822,7.08673 0 0 1 2.16,0.68 8.19213,7.97223 0 0 1 1.85,1.26 c 0.55,0.51 1.05,1.08 1.47,1.72 a 9.87685,9.61173 0 0 1 1.56,4.3 9.11339,8.86876 0 0 1 -0.08,2.33 z"
   class="st1"
   id="path19"
   inkscape:connector-curvature="0"
   style="fill:#59b4d9;stroke:none;stroke-width:9.5625;stroke-linecap:butt" />
					</g>
				</g>
			</g>
		</g>
	</g>
</svg>

<?xml version="1.0" encoding="UTF-8" standalone="no"?>
<!DOCTYPE svg PUBLIC "-//W3C//DTD SVG 1.1//EN" "http://www.w3.org/Graphics/SVG/1.1/DTD/svg11.dtd">
<!-- Generated by Microsoft Visio, SVG Export Azure Cosmos DB Cognitive Search.svg Page-1 -->
<svg xmlns="http://www.w3.org/2000/svg" xmlns:xlink="http://www.w3.org/1999/xlink" xmlns:ev="http://www.w3.org/2001/xml-events"
		width="1.05303in" height="1.07769in" viewBox="0 0 75.8179 77.594" xml:space="preserve" color-interpolation-filters="sRGB"
		class="st2">
	<style type="text/css">
	<![CDATA[
		.st1 {fill:#59b4d9;stroke:none;stroke-linecap:butt;stroke-width:9.5625}
		.st2 {fill:none;fill-rule:evenodd;font-size:12px;overflow:visible;stroke-linecap:square;stroke-miterlimit:3}
	]]>
	</style>

	<g>
		<title>Page-1</title>
		<g id="group19334-1" transform="translate(9.56253,-34.0157)">
			<title>Azure Cosmos DB Cognitive Search.19334</title>
			<g id="group19335-2">
				<title>Sheet.19335</title>
				<g id="group19336-3">
					<title>Sheet.19336</title>
					<g id="shape19337-4" transform="translate(25.663,-9.2338)">
						<title>Sheet.19337</title>
						<path d="M11.01 67.35 C10.59 66.73 10.05 66.2 9.41 65.79 C8.76 65.37 8.02 65.09 7.2 64.96 A5.88472 5.72676
									 -180 0 0 4.79 65.05 C4.01 65.24 3.3 65.57 2.66 66.02 A6.37701 6.20583 -180 0 0 1.04 67.74 C0.59
									 68.43 0.3 69.22 0.15 70.09 C0 70.99 0.01 71.86 0.18 72.69 C0.35 73.52 0.66 74.27 1.1 74.92 A6.0189
									 5.85733 -180 0 0 2.78 76.58 A5.72598 5.57228 -180 0 0 5.1 77.46 C5.93 77.59 6.73 77.55 7.49
									 77.33 A5.65039 5.49872 -180 0 0 9.53 76.27 A6.53575 6.36031 -180 0 0 11.06 74.42 C11.48 73.69
									 11.76 72.87 11.91 71.96 A7.07528 6.88535 -180 0 0 11.88 69.48 A6.21543 6.04859 -180 0 0 11.01
									 67.35 Z" class="st1"/>
					</g>
					<g id="shape19338-6">
						<title>Sheet.19338</title>
						<path d="M55.18 64.35 A9.77008 9.50782 -180 0 0 51.38 61.3 C51.5 60.92 51.62 60.53 51.72 60.13 C51.83 59.72
									 51.89 59.27 51.89 58.75 C51.89 57.44 51.65 56.2 51.17 55.03 A10.6299 10.3446 -180 0 0 49.22
									 51.94 A9.40913 9.15657 -180 0 0 46.32 49.79 A7.8652 7.65407 -180 0 0 42.81 49.01 C40.42 49.01
									 38.62 49.69 37.41 51.05 C36.8 48.64 35.67 46.79 34.03 45.5 C32.39 44.22 30.5 43.58 28.36 43.58
									 C27 43.58 25.73 43.85 24.56 44.4 A9.5452 9.28898 -180 0 0 21.49 46.69 C20.61 47.68 19.93 48.84
									 19.43 50.18 C18.94 51.52 18.69 52.96 18.69 54.5 C18.69 54.65 18.7 54.84 18.73 55.05 C18.76 55.26
									 18.79 55.45 18.81 55.6 C18.43 55.45 17.97 55.32 17.41 55.23 A10.5222 10.2398 -180 0 0 15.69
									 55.1 C15.08 55.1 14.48 55.22 13.88 55.45 A6.90992 6.72444 -180 0 0 12.22 56.39 A10.7717 10.4825
									 -180 0 0 10.78 57.72 C10.34 58.21 9.97 58.28 9.67 59.2 L7.86 59.2 A6.2022 6.03572 -180 0 0 4.88
									 59.93 A8.7137 8.4798 -180 0 0 2.39 61.89 A10.062 9.79195 -180 0 0 0.65 64.72 A9.27213 9.02324
									 -180 0 0 -0 68.07 C0 69.43 0.22 70.69 0.65 71.87 C1.09 73.04 1.67 74.04 2.39 74.88 C3.11 75.72
									 3.94 76.39 4.88 76.87 A6.32126 6.15158 -180 0 0 7.86 77.59 L50.05 77.59 C50.84 77.59 51.62 77.35
									 52.41 76.88 C53.19 76.41 53.9 75.8 54.54 75.04 C55.18 74.28 55.7 73.4 56.1 72.42 A8.3263 8.1028
									 -180 0 0 56.69 69.44 C56.69 67.39 56.19 65.69 55.18 64.35 ZM40.3 63.16 A9.86079 9.5961 0 0 1
									 39.57 65.55 A10.56 10.2765 0 0 1 38.3 67.63 A10.2047 9.9308 0 0 1 36.61 69.31 C35.98 69.8 35.32
									 70.2 34.63 70.51 C33.93 70.82 33.22 71.03 32.47 71.15 C31.73 71.26 31 71.26 30.27 71.15 C29.69
									 71.06 29.19 70.95 28.76 70.82 A6.79087 6.60858 0 0 1 27.62 70.36 A5.53701 5.38838 0 0 1 26.73
									 69.8 A8.65701 8.42463 0 0 1 25.99 69.13 L18.23 75.11 C17.8 75.38 17.36 75.48 16.91 75.41 A1.88787
									 1.8372 0 0 1 16.2 75.14 A2.42268 2.35765 0 0 1 15.58 74.55 A2.11087 2.0542 0 0 1 15.17 73.68
									 A2.74961 2.6758 0 0 1 15.47 71.85 C15.63 71.57 15.83 71.34 16.06 71.16 L23.54 65.43 C23.2 64.57
									 23.02 63.72 22.98 62.9 C22.94 62.07 22.99 61.25 23.12 60.43 C23.26 59.6 23.51 58.82 23.87 58.09
									 C24.22 57.36 24.66 56.69 25.17 56.09 A9.29291 9.04346 0 0 1 26.89 54.51 C27.54 54.05 28.21 53.69
									 28.92 53.4 C29.63 53.12 30.36 52.93 31.11 52.83 C31.86 52.74 32.61 52.75 33.34 52.87 A7.2822
									 7.08673 0 0 1 35.5 53.55 A8.19213 7.97223 0 0 1 37.35 54.81 C37.9 55.32 38.4 55.89 38.82 56.53
									 A9.87685 9.61173 0 0 1 40.38 60.83 A9.11339 8.86876 0 0 1 40.3 63.16 Z" class="st1"/>
					</g>
				</g>
			</g>
		</g>
	</g>
</svg>
